static/img/kroki/f375e1b91e3f89903f7ef13d7b454b26.svg

<?xml version="1.0" encoding="us-ascii" standalone="no"?><svg xmlns="http://www.w3.org/2000/svg" xmlns:xlink="http://www.w3.org/1999/xlink" contentStyleType="text/css" height="252px" preserveAspectRatio="none" style="width:512px;height:252px;" version="1.1" viewBox="0 0 512 252" width="512px" zoomAndPan="magnify"><defs/><g><!--class gcp_backend_service--><g id="elem_gcp_backend_service"><rect codeLine="22" fill="#3D176E" height="39.7891" id="gcp_backend_service" rx="2.5" ry="2.5" style="stroke:#000D19;stroke-width:0.5;" width="215" x="7" y="106.79"/><ellipse cx="22" cy="126.6845" fill="#ADD1B2" rx="11" ry="11" style="stroke:#181818;stroke-width:1.0;"/><path d="M24.9688,132.3252 Q24.3906,132.622 23.75,132.7627 Q23.1094,132.9189 22.4063,132.9189 Q19.9063,132.9189 18.5781,131.2783 Q17.2656,129.622 17.2656,126.497 Q17.2656,123.372 18.5781,121.7158 Q19.9063,120.0595 22.4063,120.0595 Q23.1094,120.0595 23.75,120.2158 Q24.4063,120.372 24.9688,120.6689 L24.9688,123.3877 Q24.3438,122.8095 23.75,122.5439 Q23.1563,122.2627 22.5313,122.2627 Q21.1875,122.2627 20.5,123.3408 Q19.8125,124.4033 19.8125,126.497 Q19.8125,128.5908 20.5,129.6689 Q21.1875,130.7314 22.5313,130.7314 Q23.1563,130.7314 23.75,130.4658 Q24.3438,130.1845 24.9688,129.6064 L24.9688,132.3252 Z " fill="#000000"/><text fill="#D9B8FF" font-family="Helvetica" font-size="17" lengthAdjust="spacing" textLength="173" x="41" y="132.5698">gcp_backend_service</text></g><!--class gcp_network--><g id="elem_gcp_network"><rect codeLine="24" fill="#3D176E" height="39.7891" id="gcp_network" rx="2.5" ry="2.5" style="stroke:#000D19;stroke-width:0.5;" width="149" x="200" y="7"/><ellipse cx="215" cy="26.8945" fill="#ADD1B2" rx="11" ry="11" style="stroke:#181818;stroke-width:1.0;"/><path d="M217.9688,32.5352 Q217.3906,32.832 216.75,32.9727 Q216.1094,33.1289 215.4063,33.1289 Q212.9063,33.1289 211.5781,31.4883 Q210.2656,29.832 210.2656,26.707 Q210.2656,23.582 211.5781,21.9258 Q212.9063,20.2695 215.4063,20.2695 Q216.1094,20.2695 216.75,20.4258 Q217.4063,20.582 217.9688,20.8789 L217.9688,23.5977 Q217.3438,23.0195 216.75,22.7539 Q216.1563,22.4727 215.5313,22.4727 Q214.1875,22.4727 213.5,23.5508 Q212.8125,24.6133 212.8125,26.707 Q212.8125,28.8008 213.5,29.8789 Q214.1875,30.9414 215.5313,30.9414 Q216.1563,30.9414 216.75,30.6758 Q217.3438,30.3945 217.9688,29.8164 L217.9688,32.5352 Z " fill="#000000"/><text fill="#D9B8FF" font-family="Helvetica" font-size="17" lengthAdjust="spacing" textLength="107" x="234" y="32.7798">gcp_network</text></g><!--class gcp_network_endpoint_group--><g id="elem_gcp_network_endpoint_group"><rect codeLine="26" fill="#3D176E" height="39.7891" id="gcp_network_endpoint_group" rx="2.5" ry="2.5" style="stroke:#000D19;stroke-width:0.5;" width="289" x="130" y="206.58"/><ellipse cx="145" cy="226.4745" fill="#ADD1B2" rx="11" ry="11" style="stroke:#181818;stroke-width:1.0;"/><path d="M147.9688,232.1152 Q147.3906,232.412 146.75,232.5527 Q146.1094,232.7089 145.4063,232.7089 Q142.9063,232.7089 141.5781,231.0683 Q140.2656,229.412 140.2656,226.287 Q140.2656,223.162 141.5781,221.5058 Q142.9063,219.8495 145.4063,219.8495 Q146.1094,219.8495 146.75,220.0058 Q147.4063,220.162 147.9688,220.4589 L147.9688,223.1777 Q147.3438,222.5995 146.75,222.3339 Q146.1563,222.0527 145.5313,222.0527 Q144.1875,222.0527 143.5,223.1308 Q142.8125,224.1933 142.8125,226.287 Q142.8125,228.3808 143.5,229.4589 Q144.1875,230.5214 145.5313,230.5214 Q146.1563,230.5214 146.75,230.2558 Q147.3438,229.9745 147.9688,229.3964 L147.9688,232.1152 Z " fill="#000000"/><text fill="#D9B8FF" font-family="Helvetica" font-size="17" lengthAdjust="spacing" textLength="247" x="164" y="232.3598">gcp_network_endpoint_group</text></g><!--class gcp_subnetwork--><g id="elem_gcp_subnetwork"><rect codeLine="28" fill="#3D176E" height="39.7891" id="gcp_subnetwork" rx="2.5" ry="2.5" style="stroke:#000D19;stroke-width:0.5;" width="178" x="327.5" y="106.79"/><ellipse cx="342.5" cy="126.6845" fill="#ADD1B2" rx="11" ry="11" style="stroke:#181818;stroke-width:1.0;"/><path d="M345.4688,132.3252 Q344.8906,132.622 344.25,132.7627 Q343.6094,132.9189 342.9063,132.9189 Q340.4063,132.9189 339.0781,131.2783 Q337.7656,129.622 337.7656,126.497 Q337.7656,123.372 339.0781,121.7158 Q340.4063,120.0595 342.9063,120.0595 Q343.6094,120.0595 344.25,120.2158 Q344.9063,120.372 345.4688,120.6689 L345.4688,123.3877 Q344.8438,122.8095 344.25,122.5439 Q343.6563,122.2627 343.0313,122.2627 Q341.6875,122.2627 341,123.3408 Q340.3125,124.4033 340.3125,126.497 Q340.3125,128.5908 341,129.6689 Q341.6875,130.7314 343.0313,130.7314 Q343.6563,130.7314 344.25,130.4658 Q344.8438,130.1845 345.4688,129.6064 L345.4688,132.3252 Z " fill="#000000"/><text fill="#D9B8FF" font-family="Helvetica" font-size="17" lengthAdjust="spacing" textLength="136" x="361.5" y="132.5698">gcp_subnetwork</text></g><!--link gcp_backend_service to gcp_network_endpoint_group--><g id="link_gcp_backend_service_gcp_network_endpoint_group"><path codeLine="30" d="M146.11,147.01 C172.52,163.15 210.19,186.17 237.9,203.11 " fill="none" id="gcp_backend_service-to-gcp_network_endpoint_group" style="stroke:#1A83AF;stroke-width:2.0;"/><polygon fill="#1A83AF" points="241.95,206.2,236.342,198.1037,237.679,203.6003,232.1824,204.9373,241.95,206.2" style="stroke:#1A83AF;stroke-width:2.0;"/></g><!--link gcp_network to gcp_backend_service--><g id="link_gcp_network_gcp_backend_service"><path codeLine="31" d="M242.89,47.22 C216.48,63.36 178.81,86.38 151.1,103.32 " fill="none" id="gcp_network-to-gcp_backend_service" style="stroke:#1A83AF;stroke-width:2.0;"/><polygon fill="#1A83AF" points="147.05,106.41,156.8157,105.1327,151.3171,103.8039,152.6459,98.3053,147.05,106.41" style="stroke:#1A83AF;stroke-width:2.0;"/></g><!--link gcp_network to gcp_network_endpoint_group--><g id="link_gcp_network_gcp_network_endpoint_group"><path codeLine="32" d="M274.5,47.2 C274.5,83.2 274.5,160.55 274.5,200.48 " fill="none" id="gcp_network-to-gcp_network_endpoint_group" style="stroke:#1A83AF;stroke-width:2.0;"/><polygon fill="#1A83AF" points="274.5,205.09,278.5,196.09,274.5,200.09,270.5,196.09,274.5,205.09" style="stroke:#1A83AF;stroke-width:2.0;"/></g><!--link gcp_network to gcp_subnetwork--><g id="link_gcp_network_gcp_subnetwork"><path codeLine="33" d="M302.55,47.22 C325.89,63.29 359.15,86.19 383.71,103.11 " fill="none" id="gcp_network-to-gcp_subnetwork" style="stroke:#1A83AF;stroke-width:2.0;"/><polygon fill="#1A83AF" points="387.5,106.41,382.3695,98.003,383.3865,103.5677,377.8218,104.5846,387.5,106.41" style="stroke:#1A83AF;stroke-width:2.0;"/></g><!--link gcp_subnetwork to gcp_network_endpoint_group--><g id="link_gcp_subnetwork_gcp_network_endpoint_group"><path codeLine="34" d="M388.45,147.01 C365.11,163.08 331.85,185.98 307.29,202.9 " fill="none" id="gcp_subnetwork-to-gcp_network_endpoint_group" style="stroke:#1A83AF;stroke-width:2.0;"/><polygon fill="#1A83AF" points="303.5,206.2,313.1782,204.3746,307.6135,203.3577,308.6305,197.793,303.5,206.2" style="stroke:#1A83AF;stroke-width:2.0;"/></g><!--SRC=[dP1FIyD04CNl-HGBEHSQYxQz235Gz5B4UXC9c-nikYJP3RFJbYf-TnFhdtNJfk9rtc_UUpDh9O11tT2UrL1dW3QmfT8DHrwp6D7i4bCPPA6KN4wclhWmciu2Iru3kuLg2wHoxXEFQvMN6gnb5uvqm_EoGBFHuc1FoBLj9T3aK4d5hOs9K6KR0gUCc6SpANtIDmqd8ffUGGypA00_aV5uBAAvZvoD6hpxcrYf5s2H-xIb8UZLx4LyK8CjEy8fsJlqIp_PyPuBeNJ1BftPmw4JQi1VyzMQ2xFhQCahwyPO0WH3-mQItbKmdmavFGhVdOBpxdEio9iqQmdG8hM0MvK3UmtU75K3xGoMnwTfkzSOfIdj8XeFiflCtJwMDNeAetWsYHVFe-i1uy1jqjlnJ8VX_mJy719uT_tH_Xq0]--></g></svg>

<svg xmlns="http://www.w3.org/2000/svg" width="512" height="252" preserveAspectRatio="none" style="width:512px;height:252px"><rect width="215" height="39.789" x="7" y="106.79" fill="#3D176E" rx="2.5" ry="2.5" style="stroke:#000d19;stroke-width:.5"/><circle cx="22" cy="126.684" r="11" fill="#ADD1B2" style="stroke:#181818;stroke-width:1"/><path d="M24.969 132.325q-.578.297-1.219.438-.64.156-1.344.156-2.5 0-3.828-1.64-1.312-1.657-1.312-4.782t1.312-4.781q1.328-1.656 3.828-1.656.703 0 1.344.156.656.156 1.219.453v2.719q-.625-.579-1.219-.844-.594-.281-1.219-.281-1.343 0-2.031 1.078-.688 1.062-.688 3.156 0 2.094.688 3.172.688 1.062 2.031 1.062.625 0 1.219-.265.594-.281 1.219-.86v2.72Z"/><text x="41" y="132.57" fill="#D9B8FF" font-family="Helvetica" font-size="17" textLength="173">gcp_backend_service</text><rect width="149" height="39.789" x="200" y="7" fill="#3D176E" rx="2.5" ry="2.5" style="stroke:#000d19;stroke-width:.5"/><circle cx="215" cy="26.895" r="11" fill="#ADD1B2" style="stroke:#181818;stroke-width:1"/><path d="M217.969 32.535q-.578.297-1.219.438-.64.156-1.344.156-2.5 0-3.828-1.64-1.312-1.657-1.312-4.782t1.312-4.781q1.328-1.656 3.828-1.656.703 0 1.344.156.656.156 1.219.453v2.719q-.625-.578-1.219-.844-.594-.281-1.219-.281-1.344 0-2.031 1.078-.688 1.062-.688 3.156 0 2.094.688 3.172.688 1.062 2.031 1.062.625 0 1.219-.265.594-.281 1.219-.86v2.72Z"/><text x="234" y="32.78" fill="#D9B8FF" font-family="Helvetica" font-size="17" textLength="107">gcp_network</text><rect width="289" height="39.789" x="130" y="206.58" fill="#3D176E" rx="2.5" ry="2.5" style="stroke:#000d19;stroke-width:.5"/><circle cx="145" cy="226.475" r="11" fill="#ADD1B2" style="stroke:#181818;stroke-width:1"/><path d="M147.969 232.115q-.578.297-1.219.438-.64.156-1.344.156-2.5 0-3.828-1.64-1.312-1.657-1.312-4.782t1.312-4.781q1.328-1.656 3.828-1.656.703 0 1.344.156.656.156 1.219.453v2.719q-.625-.578-1.219-.844-.594-.281-1.219-.281-1.344 0-2.031 1.078-.688 1.062-.688 3.156 0 2.094.688 3.172.688 1.062 2.031 1.062.625 0 1.219-.265.594-.281 1.219-.86v2.72Z"/><text x="164" y="232.36" fill="#D9B8FF" font-family="Helvetica" font-size="17" textLength="247">gcp_network_endpoint_group</text><rect width="178" height="39.789" x="327.5" y="106.79" fill="#3D176E" rx="2.5" ry="2.5" style="stroke:#000d19;stroke-width:.5"/><circle cx="342.5" cy="126.684" r="11" fill="#ADD1B2" style="stroke:#181818;stroke-width:1"/><path d="M345.469 132.325q-.578.297-1.219.438-.64.156-1.344.156-2.5 0-3.828-1.64-1.312-1.657-1.312-4.782t1.312-4.781q1.328-1.656 3.828-1.656.703 0 1.344.156.656.156 1.219.453v2.719q-.625-.579-1.219-.844-.594-.281-1.219-.281-1.344 0-2.031 1.078-.688 1.062-.688 3.156 0 2.094.688 3.172.688 1.062 2.031 1.062.625 0 1.219-.265.594-.281 1.219-.86v2.72Z"/><text x="361.5" y="132.57" fill="#D9B8FF" font-family="Helvetica" font-size="17" textLength="136">gcp_subnetwork</text><path fill="none" d="M146.11 147.01c26.41 16.14 64.08 39.16 91.79 56.1" style="stroke:#1a83af;stroke-width:2"/><path fill="#1A83AF" d="m241.95 206.2-5.608-8.096 1.337 5.496-5.497 1.337 9.768 1.263z" style="stroke:#1a83af;stroke-width:2"/><path fill="none" d="M242.89 47.22c-26.41 16.14-64.08 39.16-91.79 56.1" style="stroke:#1a83af;stroke-width:2"/><path fill="#1A83AF" d="m147.05 106.41 9.766-1.277-5.499-1.33 1.329-5.498-5.596 8.105z" style="stroke:#1a83af;stroke-width:2"/><path fill="none" d="M274.5 47.2v153.28" style="stroke:#1a83af;stroke-width:2"/><path fill="#1A83AF" d="m274.5 205.09 4-9-4 4-4-4 4 9z" style="stroke:#1a83af;stroke-width:2"/><path fill="none" d="M302.55 47.22c23.34 16.07 56.6 38.97 81.16 55.89" style="stroke:#1a83af;stroke-width:2"/><path fill="#1A83AF" d="m387.5 106.41-5.13-8.407 1.017 5.565-5.565 1.017 9.678 1.825z" style="stroke:#1a83af;stroke-width:2"/><path fill="none" d="M388.45 147.01c-23.34 16.07-56.6 38.97-81.16 55.89" style="stroke:#1a83af;stroke-width:2"/><path fill="#1A83AF" d="m303.5 206.2 9.678-1.825-5.565-1.017 1.017-5.565-5.13 8.407z" style="stroke:#1a83af;stroke-width:2"/></svg>
